X:1
T:Der er et yndigt Land
T:National Anthem of Denmark
T:Hans Ernst Krøyer
T:Adam Oehlenschläger 
T:public domain
Z:public domain
%%score { 1 | 2 }
L:1/8
M:3/8
K:D
V:1 treble nm="Piano" snm="Pno."
V:2 treble 
V:1
|: z2 D[Q:1/4=120]"^Allegretto" |[M:4/4] A3 A F2 D2 | B6 z D | d3 d c2 B2 | [GB]2 [F-A]2 F2 A2 | %5
w: Der|er et yn- digt|land Det|står med bre- de|bø- ge * Nær|
w: Der|sad i for- dums|tid. De|harn- isk- klæd- te|kæm- per, * Ud-|
 C3 C D2 E2 | F2 G2 A2 B2 | A4 ^G4 | A6 z A | c3 c B2 A2 | A3 d d2 F2 | B3 B B2 B2 | B4 _B3 A | %13
w: sal- ten ø- ster-|strand. Nær sal- ten|ø- ster-|strand. Det|bug- ter sig i|bak- ke- dal. Det|hed- der gam- le|Dan- mark Og|
w: hvi- le- der fra|strid. Ud- hvi- le-|de fra|strid. Så|drog de frem til|fjen- ders mén. Nu|hvi- le de- res|be- ne. Bag|
 A2 _A2 G2 F2 | (B2 d3) dcB | (B2 A4) C2 |1[M:2/4] D4 :|2[M:4/4] !fermata!D8 :| %18
w: det er Fre- jas|sa- al. Og det er|Fre- * jas|sal.||
w: høj- ens bau- tas-|te- en. Bag høj- ens|bau- * tas||ten.|
V:2
|: z3 |[M:4/4] [A,D=F]3 A, [A,D]2 [F,A,]2 | [B,DG]6 z2 | [DG]3 D [DG]2 [DG]2 | D6 [A,D]2 | %5
 A,3 A, A,2 [G,A,]2 | [F,B,]2 [B,E]2 [A,E]2 [DF]2 | [CE]4 [B,DE]4 | [A,CE]6 z2 | %9
 [EG]3 [EG] [DG]2 [G,C]2 | [DG]3 [DF] [DF]2 [A,E]2 | [B,DG]3 [B,^D] [B,E]2 [B,^E]2 | %12
 [CF]4 [CF]2 [=CF] z | [B,F]2 [B,E]2 [A,E]2 [A,D]2 | [DG]2 [D=FB]3 [D=F][D=F][D=F] | %15
 [DF]6 [G,A,]2 |1[M:2/4] A,4 :|2[M:4/4] !fermata![F,A,FA]8 :| %18

